X:1
T:Title
%%score ( 1 2 ) { ( 3 5 ) | 4 }
L:1/8
Q:1/4=120
M:3/4
K:C
V:1 treble nm="Grand Piano, Soprano"
V:2 treble 
V:3 bass nm="Choir Pad, Penfield, Lowell Mason 1839"
V:5 bass 
V:4 bass 
V:1
 [CA]2 [EA]2 [CA]2 | [CA]2 [B,^G]2 [EA]2 | [DB]2 [CA]2 [C^G]2 | [CA]6 | [EG]2 G2 [EG]2 | %5
w: By~Lowell~Mason,~1839 * *|||||
 [DA]4 [CE]2 | [DF]2 [CE]2 [B,D]2 | [CE]6 | [CE]2 E2 [EA]2 | A2 ^G2 [EA]2 | [Ed]4 [Ec]2 | %11
w: ||||||
 c2 B2 [EB]2 | c2 B2 [EA]2 | A2 ^G2 [EA]2 | [FB]2 [EA]2 ^G-[DG] | [CA]6- | [CA]2 z2 z2 |] %17
w: ||||||
V:2
 x6 | x6 | x6 | x6 | x6 | x6 | x6 | x6 | x6 | E4 z2 | x6 | E4 z2 | E4 z2 | E4 z2 | z2 z2 .E2 | x6 | %16
 x6 |] %17
V:3
 E,2 E,2 E,2 | E,3 D, E,2 | F,2 E,2 E,2 | E,6 | C2 C2 C2 | B,4 A,2 | A,2 G,2 G,2 | G,6 | %8
 A,2 A,2 C2 | z2 B,2 z2 | ^G,4 A,2 | A,2 ^G,2 G,2 | A,2 D2 C2 | z2 B,2[K:treble] z2 | D2 C2 B,2 | %15
 A,6- | A,2 z2 z2 |] %17
V:4
 A,,2 C,2 A,,2 | z2 z2 C,2 | D,2 z2 z2 | A,,6 | C,2 E,2 C,2 | G,4 z2 | D,2 z2 G,,2 | C,6 | %8
 A,,2 C,2 A,,2 | .E,4 C,2 | B,,4 C,D, | E,4 E,2 | A,,2 B,,2 C,D, | .E,4 C,2 | D,2 E,2 E,2 | A,,6- | %16
 A,,2 z2 z2 |] %17
V:5
 x6 | x6 | x6 | x6 | x6 | x6 | x6 | x6 | x6 | C2 z D, A,2 | x6 | x6 | x6 | C2 z D,[K:treble] E2 | %14
 x6 | x6 | x6 |] %17

